src/images/location.svg

<?xml version="1.0" encoding="UTF-8" standalone="no"?>
<svg
   xmlns:dc="http://purl.org/dc/elements/1.1/"
   xmlns:cc="http://creativecommons.org/ns#"
   xmlns:rdf="http://www.w3.org/1999/02/22-rdf-syntax-ns#"
   xmlns:svg="http://www.w3.org/2000/svg"
   xmlns="http://www.w3.org/2000/svg"
   xmlns:sodipodi="http://sodipodi.sourceforge.net/DTD/sodipodi-0.dtd"
   xmlns:inkscape="http://www.inkscape.org/namespaces/inkscape"
   height="48"
   viewBox="0 0 48 48"
   width="48"
   version="1.1"
   id="svg6"
   sodipodi:docname="iconfinder_ic_location_on_48px_352521.svg"
   inkscape:version="1.0.1 (3bc2e813f5, 2020-09-07)">
  <metadata
     id="metadata12">
    <rdf:RDF>
      <cc:Work
         rdf:about="">
        <dc:format>image/svg+xml</dc:format>
        <dc:type
           rdf:resource="http://purl.org/dc/dcmitype/StillImage" />
      </cc:Work>
    </rdf:RDF>
  </metadata>
  <defs
     id="defs10" />
  <sodipodi:namedview
     pagecolor="#ffffff"
     bordercolor="#666666"
     borderopacity="1"
     objecttolerance="10"
     gridtolerance="10"
     guidetolerance="10"
     inkscape:pageopacity="0"
     inkscape:pageshadow="2"
     inkscape:window-width="1998"
     inkscape:window-height="1401"
     id="namedview8"
     showgrid="false"
     inkscape:zoom="21"
     inkscape:cx="24"
     inkscape:cy="24"
     inkscape:window-x="-7"
     inkscape:window-y="0"
     inkscape:window-maximized="0"
     inkscape:current-layer="svg6" />
  <path
     d="M24 4c-7.73 0-14 6.27-14 14 0 10.5 14 26 14 26s14-15.5 14-26c0-7.73-6.27-14-14-14zm0 19c-2.76 0-5-2.24-5-5s2.24-5 5-5 5 2.24 5 5-2.24 5-5 5z"
     id="path2" />
  <path
     d="M0 0h48v48h-48z"
     fill="none"
     id="path4" />
  <path
     style="fill:#eeeeee;stroke-width:0.047619"
     d="M 23.290921,43.1371 C 19.064691,38.183895 15.401886,32.856758 13.095855,28.309524 11.44222,25.048743 10.522201,22.371133 10.134373,19.690476 c -0.127525,-0.881453 -0.114108,-2.728199 0.02647,-3.642857 0.476654,-3.101383 1.802147,-5.749218 3.957558,-7.905711 2.840613,-2.8420375 6.584411,-4.28322 10.619698,-4.0880741 5.020253,0.2427787 9.546032,3.2299286 11.786586,7.7794991 1.326307,2.693141 1.735813,5.525742 1.231346,8.517352 -0.819459,4.859582 -4.090584,11.181338 -9.514369,18.38741 -1.120575,1.488802 -2.965239,3.766823 -4.082728,5.041862 l -0.161895,0.184719 z m 1.645366,-20.203983 c 1.042878,-0.199616 1.968039,-0.706834 2.709837,-1.485664 0.586232,-0.615497 0.995764,-1.352655 1.221976,-2.199557 C 28.977293,18.839093 28.99155,18.69497 28.99155,18 c 0,-0.69497 -0.01426,-0.839093 -0.12345,-1.247896 C 28.615209,15.80532 28.147078,15.022552 27.427006,14.342432 26.49587,13.46296 25.515263,13.057951 24.20734,13.012651 23.204184,12.977907 22.499889,13.122699 21.717096,13.524607 20.444147,14.178174 19.506852,15.348344 19.1319,16.752104 19.022707,17.160907 19.00845,17.30503 19.00845,18 c 0,0.69497 0.01426,0.839093 0.12345,1.247896 0.503274,1.884178 2.002388,3.302081 3.89191,3.681072 0.421357,0.08451 1.48061,0.08681 1.912477,0.0041 z"
     id="path14" />
</svg>

<svg xmlns="http://www.w3.org/2000/svg" height="48" width="48"><path d="M24 4c-7.73 0-14 6.27-14 14 0 10.5 14 26 14 26s14-15.5 14-26c0-7.73-6.27-14-14-14zm0 19c-2.76 0-5-2.24-5-5s2.24-5 5-5 5 2.24 5 5-2.24 5-5 5z"/><path d="M0 0h48v48H0z" fill="none"/><path d="M23.29 43.137c-4.225-4.953-7.888-10.28-10.194-14.827-1.654-3.261-2.574-5.939-2.962-8.62-.127-.881-.114-2.728.027-3.642.476-3.102 1.802-5.75 3.957-7.906 2.841-2.842 6.585-4.283 10.62-4.088 5.02.243 9.546 3.23 11.787 7.78 1.326 2.692 1.735 5.525 1.231 8.517-.82 4.86-4.09 11.181-9.514 18.387a106.17 106.17 0 01-4.083 5.042l-.162.185zm1.646-20.204a5 5 0 002.71-1.486 5.021 5.021 0 001.222-2.2c.11-.408.124-.552.124-1.247 0-.695-.015-.84-.124-1.248a4.987 4.987 0 00-1.441-2.41c-.931-.879-1.912-1.284-3.22-1.33-1.003-.034-1.707.11-2.49.513a5.092 5.092 0 00-2.585 3.227c-.11.409-.124.553-.124 1.248s.015.84.124 1.248c.503 1.884 2.002 3.302 3.892 3.681.421.084 1.48.087 1.912.004z" fill="#eee"/></svg>
